X: 3
T: MacArthur Road
R: reel
M: 4/4
L: 1/8
K:Dmaj
|: A2 FB ABde | f2 (3fff edBd | ~e3 f edBd | g2 fg fedB |
A2 FB ABde | f2 (3fff edBd | e3 f edBG | ABde d4 :|
|: ad (3ddd adbd | addf edBd | ~e3 f edBd | g2 fg fedB |
[2 A2 FB ABde | f2 (3fff edBd | e3 f edBG | ABde d4 |]
[1 ad (3ddd adbd | addf edBd | ~e3 f edBG | ABde d4 :|